assets/images/by_all_w.svg

<svg fill="none" height="20" viewBox="0 0 20 20" width="20" xmlns="http://www.w3.org/2000/svg"><g clip-rule="evenodd" fill="#fff" fill-rule="evenodd"><path d="m16.5833 2h-12.49997c-.55253 0-1.08243.21949-1.47314.61019-.3907.39071-.61019.92061-.61019 1.47314v12.49997c0 .5526.21949 1.0825.61019 1.4732.39071.3907.92061.6102 1.47314.6102h12.49997c.5526 0 1.0825-.2195 1.4732-.6102s.6102-.9206.6102-1.4732v-12.49997c0-.55253-.2195-1.08243-.6102-1.47314-.3907-.3907-.9206-.61019-1.4732-.61019zm-13.54163 4.01771c0-.49271.46666-.89271 1.04166-.89271h12.49997c.575 0 1.0417.4 1.0417.89271v10.71459c0 .4927-.4667.8927-1.0417.8927h-12.49997c-.575 0-1.04166-.4-1.04166-.8927z"/><path d="m8.7882 9.3335c.27326 0 .53532-.10536.72854-.2929.19322-.18753.30177-.44189.30177-.7071 0-.26522-.10855-.51957-.30177-.70711s-.45528-.29289-.72854-.29289c-.27325 0-.53531.10535-.72853.29289s-.30177.44189-.30177.70711c0 .26521.10855.51957.30177.7071.19322.18754.45528.2929.72853.2929zm3.0909 0c.2733 0 .5353-.10536.7285-.2929.1933-.18753.3018-.44189.3018-.7071 0-.26522-.1085-.51957-.3018-.70711-.1932-.18754-.4552-.29289-.7285-.29289-.2732 0-.5353.10535-.7285.29289s-.3018.44189-.3018.70711c0 .26521.1086.51957.3018.7071.1932.18754.4553.2929.7285.2929zm3.0909 0c.2733 0 .5353-.10536.7286-.2929.1932-.18753.3017-.44189.3017-.7071 0-.26522-.1085-.51957-.3017-.70711-.1933-.18754-.4553-.29289-.7286-.29289-.2732 0-.5353.10535-.7285.29289s-.3018.44189-.3018.70711c0 .26521.1086.51957.3018.7071.1932.18754.4553.2929.7285.2929zm-9.2727 3c.27325 0 .53531-.1054.72853-.2929s.30177-.4419.30177-.7071-.10855-.5196-.30177-.7071-.45528-.2929-.72853-.2929c-.27326 0-.53532.1054-.72854.2929s-.30177.4419-.30177.7071.10855.5196.30177.7071.45528.2929.72854.2929zm3.0909 0c.27326 0 .53532-.1054.72854-.2929s.30177-.4419.30177-.7071-.10855-.5196-.30177-.7071-.45528-.2929-.72854-.2929c-.27325 0-.53531.1054-.72853.2929s-.30177.4419-.30177.7071.10855.5196.30177.7071.45528.2929.72853.2929zm3.0909 0c.2733 0 .5353-.1054.7285-.2929.1933-.1875.3018-.4419.3018-.7071s-.1085-.5196-.3018-.7071c-.1932-.1875-.4552-.2929-.7285-.2929-.2732 0-.5353.1054-.7285.2929s-.3018.4419-.3018.7071.1086.5196.3018.7071.4553.2929.7285.2929zm3.0909 0c.2733 0 .5353-.1054.7286-.2929.1932-.1875.3017-.4419.3017-.7071s-.1085-.5196-.3017-.7071c-.1933-.1875-.4553-.2929-.7286-.2929-.2732 0-.5353.1054-.7285.2929s-.3018.4419-.3018.7071.1086.5196.3018.7071.4553.2929.7285.2929zm-9.2727 3c.27325 0 .53531-.1054.72853-.2929s.30177-.4419.30177-.7071-.10855-.5196-.30177-.7071-.45528-.2929-.72853-.2929c-.27326 0-.53532.1054-.72854.2929s-.30177.4419-.30177.7071.10855.5196.30177.7071.45528.2929.72854.2929zm3.0909 0c.27326 0 .53532-.1054.72854-.2929s.30177-.4419.30177-.7071-.10855-.5196-.30177-.7071-.45528-.2929-.72854-.2929c-.27325 0-.53531.1054-.72853.2929s-.30177.4419-.30177.7071.10855.5196.30177.7071.45528.2929.72853.2929zm3.0909 0c.2733 0 .5353-.1054.7285-.2929.1933-.1875.3018-.4419.3018-.7071s-.1085-.5196-.3018-.7071c-.1932-.1875-.4552-.2929-.7285-.2929-.2732 0-.5353.1054-.7285.2929s-.3018.4419-.3018.7071.1086.5196.3018.7071.4553.2929.7285.2929z"/></g></svg>

<svg width="20" height="20" viewBox="0 0 20 20" fill="none" xmlns="http://www.w3.org/2000/svg">
<path fill-rule="evenodd" clip-rule="evenodd" d="M16.5833 2H4.08333C3.5308 2 3.0009 2.21949 2.61019 2.61019C2.21949 3.0009 2 3.5308 2 4.08333L2 16.5833C2 17.1359 2.21949 17.6658 2.61019 18.0565C3.0009 18.4472 3.5308 18.6667 4.08333 18.6667H16.5833C17.1359 18.6667 17.6658 18.4472 18.0565 18.0565C18.4472 17.6658 18.6667 17.1359 18.6667 16.5833V4.08333C18.6667 3.5308 18.4472 3.0009 18.0565 2.61019C17.6658 2.21949 17.1359 2 16.5833 2V2ZM3.04167 6.01771C3.04167 5.525 3.50833 5.125 4.08333 5.125H16.5833C17.1583 5.125 17.625 5.525 17.625 6.01771V16.7323C17.625 17.225 17.1583 17.625 16.5833 17.625H4.08333C3.50833 17.625 3.04167 17.225 3.04167 16.7323V6.01771Z" fill="white"/>
<path fill-rule="evenodd" clip-rule="evenodd" d="M8.7882 9.3335C9.06146 9.3335 9.32352 9.22814 9.51674 9.0406C9.70996 8.85307 9.81851 8.59871 9.81851 8.3335C9.81851 8.06828 9.70996 7.81393 9.51674 7.62639C9.32352 7.43885 9.06146 7.3335 8.7882 7.3335C8.51495 7.3335 8.25289 7.43885 8.05967 7.62639C7.86645 7.81393 7.7579 8.06828 7.7579 8.3335C7.7579 8.59871 7.86645 8.85307 8.05967 9.0406C8.25289 9.22814 8.51495 9.3335 8.7882 9.3335ZM11.8791 9.3335C12.1524 9.3335 12.4144 9.22814 12.6076 9.0406C12.8009 8.85307 12.9094 8.59871 12.9094 8.3335C12.9094 8.06828 12.8009 7.81393 12.6076 7.62639C12.4144 7.43885 12.1524 7.3335 11.8791 7.3335C11.6059 7.3335 11.3438 7.43885 11.1506 7.62639C10.9574 7.81393 10.8488 8.06828 10.8488 8.3335C10.8488 8.59871 10.9574 8.85307 11.1506 9.0406C11.3438 9.22814 11.6059 9.3335 11.8791 9.3335ZM14.97 9.3335C15.2433 9.3335 15.5053 9.22814 15.6986 9.0406C15.8918 8.85307 16.0003 8.59871 16.0003 8.3335C16.0003 8.06828 15.8918 7.81393 15.6986 7.62639C15.5053 7.43885 15.2433 7.3335 14.97 7.3335C14.6968 7.3335 14.4347 7.43885 14.2415 7.62639C14.0483 7.81393 13.9397 8.06828 13.9397 8.3335C13.9397 8.59871 14.0483 8.85307 14.2415 9.0406C14.4347 9.22814 14.6968 9.3335 14.97 9.3335ZM5.6973 12.3335C5.97055 12.3335 6.23261 12.2281 6.42583 12.0406C6.61905 11.8531 6.7276 11.5987 6.7276 11.3335C6.7276 11.0683 6.61905 10.8139 6.42583 10.6264C6.23261 10.4389 5.97055 10.3335 5.6973 10.3335C5.42404 10.3335 5.16198 10.4389 4.96876 10.6264C4.77554 10.8139 4.66699 11.0683 4.66699 11.3335C4.66699 11.5987 4.77554 11.8531 4.96876 12.0406C5.16198 12.2281 5.42404 12.3335 5.6973 12.3335ZM8.7882 12.3335C9.06146 12.3335 9.32352 12.2281 9.51674 12.0406C9.70996 11.8531 9.81851 11.5987 9.81851 11.3335C9.81851 11.0683 9.70996 10.8139 9.51674 10.6264C9.32352 10.4389 9.06146 10.3335 8.7882 10.3335C8.51495 10.3335 8.25289 10.4389 8.05967 10.6264C7.86645 10.8139 7.7579 11.0683 7.7579 11.3335C7.7579 11.5987 7.86645 11.8531 8.05967 12.0406C8.25289 12.2281 8.51495 12.3335 8.7882 12.3335ZM11.8791 12.3335C12.1524 12.3335 12.4144 12.2281 12.6076 12.0406C12.8009 11.8531 12.9094 11.5987 12.9094 11.3335C12.9094 11.0683 12.8009 10.8139 12.6076 10.6264C12.4144 10.4389 12.1524 10.3335 11.8791 10.3335C11.6059 10.3335 11.3438 10.4389 11.1506 10.6264C10.9574 10.8139 10.8488 11.0683 10.8488 11.3335C10.8488 11.5987 10.9574 11.8531 11.1506 12.0406C11.3438 12.2281 11.6059 12.3335 11.8791 12.3335ZM14.97 12.3335C15.2433 12.3335 15.5053 12.2281 15.6986 12.0406C15.8918 11.8531 16.0003 11.5987 16.0003 11.3335C16.0003 11.0683 15.8918 10.8139 15.6986 10.6264C15.5053 10.4389 15.2433 10.3335 14.97 10.3335C14.6968 10.3335 14.4347 10.4389 14.2415 10.6264C14.0483 10.8139 13.9397 11.0683 13.9397 11.3335C13.9397 11.5987 14.0483 11.8531 14.2415 12.0406C14.4347 12.2281 14.6968 12.3335 14.97 12.3335ZM5.6973 15.3335C5.97055 15.3335 6.23261 15.2281 6.42583 15.0406C6.61905 14.8531 6.7276 14.5987 6.7276 14.3335C6.7276 14.0683 6.61905 13.8139 6.42583 13.6264C6.23261 13.4389 5.97055 13.3335 5.6973 13.3335C5.42404 13.3335 5.16198 13.4389 4.96876 13.6264C4.77554 13.8139 4.66699 14.0683 4.66699 14.3335C4.66699 14.5987 4.77554 14.8531 4.96876 15.0406C5.16198 15.2281 5.42404 15.3335 5.6973 15.3335ZM8.7882 15.3335C9.06146 15.3335 9.32352 15.2281 9.51674 15.0406C9.70996 14.8531 9.81851 14.5987 9.81851 14.3335C9.81851 14.0683 9.70996 13.8139 9.51674 13.6264C9.32352 13.4389 9.06146 13.3335 8.7882 13.3335C8.51495 13.3335 8.25289 13.4389 8.05967 13.6264C7.86645 13.8139 7.7579 14.0683 7.7579 14.3335C7.7579 14.5987 7.86645 14.8531 8.05967 15.0406C8.25289 15.2281 8.51495 15.3335 8.7882 15.3335ZM11.8791 15.3335C12.1524 15.3335 12.4144 15.2281 12.6076 15.0406C12.8009 14.8531 12.9094 14.5987 12.9094 14.3335C12.9094 14.0683 12.8009 13.8139 12.6076 13.6264C12.4144 13.4389 12.1524 13.3335 11.8791 13.3335C11.6059 13.3335 11.3438 13.4389 11.1506 13.6264C10.9574 13.8139 10.8488 14.0683 10.8488 14.3335C10.8488 14.5987 10.9574 14.8531 11.1506 15.0406C11.3438 15.2281 11.6059 15.3335 11.8791 15.3335Z" fill="white"/>
</svg>
